X: 43225
T: Within A Mile Of Dublin
R: reel
M: 4/4
K: Dmixolydian
FG|AD (3DDD FEFG|AD (3DDD c2 BG|AD (3DDD FEFG|AdcA G2 FG|
AD (3DDD FEFG|AD (3DDD c2 BG|AD (3DDD FEFG|AdcA G2 FG|
Addc AGFG|Adde fdec|Addc AGFG|ABcA G2 FG|
Addc AGFG|Adde f2 fg|af (3gfe fdec|dcAF G2 FG|

